icons/happy_fill.svg

<svg width="48" height="48" viewBox="0 0 48 48" fill="none" xmlns="http://www.w3.org/2000/svg">
<path fill-rule="evenodd" clip-rule="evenodd" d="M24 40C32.8366 40 40 32.8366 40 24C40 15.1634 32.8366 8 24 8C15.1634 8 8 15.1634 8 24C8 32.8366 15.1634 40 24 40ZM24 42C33.9411 42 42 33.9411 42 24C42 14.0589 33.9411 6 24 6C14.0589 6 6 14.0589 6 24C6 33.9411 14.0589 42 24 42Z" fill="black"/>
<path fill-rule="evenodd" clip-rule="evenodd" d="M21.2857 21.2489C21.3934 21.6474 21.4323 22.0844 21.3023 22.4421C21.2512 22.5827 21.1398 22.6931 20.9987 22.7429C20.8576 22.7926 20.7016 22.7766 20.5736 22.6991C20.3119 22.5409 20.0523 22.3386 19.8085 22.1417C19.7422 22.0882 19.6772 22.0351 19.6129 21.9827C19.4326 21.8355 19.2585 21.6935 19.0791 21.5592C18.5774 21.1839 18.1791 20.9863 17.8345 21.0032C17.4717 21.0209 17.0342 21.274 16.4719 21.7181C16.3135 21.8432 16.1434 21.9853 15.9668 22.133C15.579 22.4572 15.1593 22.8081 14.7599 23.0645C14.6163 23.1567 14.4355 23.1693 14.2804 23.0978C14.1254 23.0264 14.0175 22.8807 13.9944 22.7115C13.9445 22.3469 14.0202 21.8907 14.1629 21.4451C14.3095 20.987 14.5433 20.4891 14.8578 20.0288C15.4778 19.1216 16.4842 18.2669 17.831 18.3234C19.1318 18.3781 20.0947 19.1404 20.6753 19.9696C20.9666 20.3855 21.1734 20.8333 21.2857 21.2489Z" fill="black"/>
<path fill-rule="evenodd" clip-rule="evenodd" d="M26.6298 21.2489C26.5221 21.6474 26.4832 22.0844 26.6132 22.4421C26.6644 22.5827 26.7758 22.6931 26.9169 22.7429C27.058 22.7926 27.2139 22.7766 27.342 22.6991C27.6036 22.5409 27.8632 22.3386 28.107 22.1417C28.1733 22.0882 28.2384 22.0351 28.3026 21.9827C28.483 21.8355 28.6571 21.6935 28.8365 21.5592C29.3381 21.1839 29.7365 20.9863 30.081 21.0032C30.4438 21.0209 30.8813 21.274 31.4436 21.7181C31.602 21.8432 31.7721 21.9853 31.9487 22.133C32.3365 22.4572 32.7563 22.8081 33.1556 23.0645C33.2993 23.1567 33.4801 23.1693 33.6351 23.0978C33.7901 23.0264 33.898 22.8807 33.9211 22.7115C33.971 22.3469 33.8954 21.8907 33.7527 21.4451C33.606 20.987 33.3723 20.4891 33.0577 20.0288C32.4377 19.1216 31.4313 18.2669 30.0845 18.3234C28.7838 18.3781 27.8208 19.1404 27.2402 19.9696C26.9489 20.3855 26.7421 20.8333 26.6298 21.2489Z" fill="black"/>
<path fill-rule="evenodd" clip-rule="evenodd" d="M24 37C19.9619 37 16.4618 33.9521 14.7419 29.5C14.7254 29.4572 14.709 29.4143 14.6928 29.3713C14.2445 28.18 15.1998 27 16.4727 27H31.5273C32.8002 27 33.7555 28.18 33.3072 29.3713C33.291 29.4143 33.2746 29.4572 33.2581 29.5C31.5382 33.9521 28.0381 37 24 37ZM31.2759 29.0715C30.9754 29.8003 30.6273 30.4681 30.2407 31.0715H17.7594C17.4238 30.5478 17.1173 29.9756 16.8457 29.3571V29.0715H31.2759Z" fill="black"/>
<path fill-rule="evenodd" clip-rule="evenodd" d="M31.2723 33.0715C31.4992 32.7772 31.7159 32.4693 31.9218 32.1488C32.3795 31.436 32.7833 30.6606 33.1248 29.8338C33.1703 29.7234 33.2148 29.6122 33.2581 29.5C33.2746 29.4572 33.291 29.4143 33.3072 29.3713C33.6902 28.3535 33.0487 27.3439 32.0599 27.0715C31.8914 27.025 31.7127 27 31.5273 27H16.4727C16.2873 27 16.1086 27.025 15.9401 27.0715C15.475 27.1996 15.0867 27.4909 14.8457 27.8694C14.5745 28.2955 14.4899 28.8322 14.6928 29.3713C14.709 29.4143 14.7254 29.4572 14.7419 29.5C14.7758 29.5878 14.8104 29.6751 14.8457 29.7618C14.9005 29.8962 14.9568 30.0293 15.0148 30.161C15.3251 30.8658 15.6814 31.5308 16.0782 32.1488C16.2841 32.4693 16.5008 32.7772 16.7277 33.0715C18.6019 35.5016 21.1687 37 24 37C26.8313 37 29.3981 35.5016 31.2723 33.0715ZM31.2759 29.0715C31.0111 29.7136 30.7094 30.3084 30.377 30.8535C30.3321 30.927 30.2867 30.9997 30.2407 31.0715H17.7594C17.4238 30.5478 17.1173 29.9756 16.8457 29.3571V29.0715H31.2759Z" fill="black"/>
</svg>

<svg
  xmlns="http://www.w3.org/2000/svg"
  width="24"
  height="24"
  viewBox="0 0 24 24"
  fill="none"
  stroke="currentColor"
  stroke-width="2"
  stroke-linecap="round"
  stroke-linejoin="round"
>
  <path
    fill-rule="evenodd"
    d="M24 40c8.837 0 16-7.163 16-16S32.837 8 24 8 8 15.163 8 24s7.163 16 16 16m0 2c9.941 0 18-8.059 18-18S33.941 6 24 6 6 14.059 6 24s8.059 18 18 18"
    clip-rule="evenodd"
  />
  <path
    fill-rule="evenodd"
    d="M21.286 21.249c.107.398.146.835.016 1.193a.5.5 0 0 1-.728.257 7 7 0 0 1-.766-.557l-.195-.16c-.18-.146-.354-.288-.534-.423-.502-.375-.9-.573-1.245-.556-.362.018-.8.271-1.362.715-.159.125-.329.267-.505.415-.388.324-.808.675-1.207.931a.5.5 0 0 1-.766-.352c-.05-.365.026-.821.169-1.267a5.6 5.6 0 0 1 .695-1.416c.62-.907 1.626-1.762 2.973-1.706 1.3.055 2.264.817 2.844 1.647.292.416.498.863.61 1.279"
    clip-rule="evenodd"
  />
  <path
    fill-rule="evenodd"
    d="M26.63 21.249c-.108.398-.147.835-.017 1.193a.5.5 0 0 0 .729.257c.262-.158.521-.36.765-.557l.196-.16c.18-.146.354-.288.534-.423.501-.375.9-.573 1.244-.556.363.018.8.271 1.363.715.158.125.328.267.505.415.387.324.807.675 1.207.931a.5.5 0 0 0 .765-.352c.05-.365-.026-.821-.168-1.267a5.6 5.6 0 0 0-.695-1.416c-.62-.907-1.627-1.762-2.974-1.706-1.3.055-2.263.817-2.844 1.647a4.2 4.2 0 0 0-.61 1.279"
    clip-rule="evenodd"
  />
  <path
    fill-rule="evenodd"
    d="M24 37c-4.038 0-7.538-3.048-9.258-7.5l-.05-.129C14.246 28.18 15.2 27 16.473 27h15.055c1.273 0 2.228 1.18 1.78 2.371l-.049.129C31.538 33.952 28.038 37 24 37m7.276-7.928c-.3.728-.649 1.396-1.035 2H17.759a12.5 12.5 0 0 1-.913-1.715v-.285z"
    clip-rule="evenodd"
  />
  <path
    fill-rule="evenodd"
    d="M31.272 33.072q.34-.443.65-.923a14.6 14.6 0 0 0 1.385-2.778c.383-1.017-.258-2.027-1.247-2.3a2 2 0 0 0-.533-.071H16.473a2 2 0 0 0-.533.072 1.9 1.9 0 0 0-1.094.797 1.66 1.66 0 0 0-.153 1.502 18 18 0 0 0 .322.79q.466 1.06 1.063 1.988.31.48.65.922C18.602 35.502 21.168 37 24 37s5.398-1.498 7.272-3.928m.004-4a13 13 0 0 1-1.035 2H17.759a12.5 12.5 0 0 1-.913-1.715v-.285z"
    clip-rule="evenodd"
  />
</svg>
